X: 3431
M: 3/4
L: 1/8
K: G
|:\
d4g2 | (fe)d4 | c2d2e2 | d6 |\
d3bag | (fe)d4 | c2d2e2 | d6 |\
|:\
d2dddd | (d4g2) | g2f2e2 | d2B2c2 |\
d2dddd | (d4g2) | g2f2e2 | "_D.C."d6 :|


